site/images/squiggle_background.svg

<svg id="Layer_1" enable-background="new 0 0 175.5 70.8" preserveAspectRatio="none" viewBox="0 0 175.5 70.8" xmlns="http://www.w3.org/2000/svg"><path d="m1.7 3.1c.2.3 4.2-2.8 4.3-2.5.1.2-4.5 9.1-4.4 9.3.4.6 14.2-9 14.5-8.4.2.3-10.3 12.1-10.1 12.5.5.7 19.2-12.5 19.8-11.4.3.6-20.9 18.4-20.5 19.1.8 1.4 30.7-19.3 31.4-18.1.7 1.1-36.8 27.3-36.2 28.4.8 1.4 51.5-32.2 52.5-30.3.6 1.1-48.1 33-47.4 34.2.9 1.5 59-36.3 60-34.6 1 1.8-63.7 42.1-62.8 43.6 1.3 2.3 72.8-45.1 74.1-42.8 1.3 2.3-77.5 48-76.1 50.4 1.6 2.8 81.5-50.7 83.1-48 1.3 2.3-79.4 50-78.1 52.2 1.8 3.3 95.2-58.4 96.7-55.9 1.5 2.8-101.6 62.9-100.2 65.2 2 3.5 111.3-68.8 113.3-65.4 1.7 3-104.5 64.1-102.9 66.9 1.6 2.9 107.5-65.6 109.1-63 1.5 2.6-98 59.3-96.3 62.3 2.2 3.8 107.3-66.8 109.4-63.2 1.4 2.5-100.3 61.9-98.8 64.4 2.1 3.6 109-67.7 111.1-64.1 1.7 2.9-101.6 62.6-100 65.2 1.8 3.1 115.1-70.8 117-67.5 1.6 2.7-104.1 63.6-102.6 66.4 2 3.4 107.9-66.2 109.6-63.3 1.6 2.9-96.1 59.3-94.6 61.9 1.5 2.7 94.3-58 95.8-55.3 1.4 2.4-85.7 54.1-84.5 56.3 1.4 2.3 84.2-52.1 85.7-49.5 1 1.7-79.7 50-78.4 52.3 1.4 2.4 77.5-47 78.5-45.3 1.1 1.9-62.6 40.6-61.6 42.3.9 1.5 62.1-37.9 63-36.3.9 1.6-56.3 37.4-55.4 38.9 1 1.7 46.6-28.8 47.4-27.4.4.7-31.4 23.4-30.8 24.4.8 1.3 36.5-22.8 37.3-21.5.4.6-29.4 22.5-28.8 23.4.5.8 26-16.2 26.5-15.3.3.5-15.3 15-15 15.6.3.6 15.4-9.9 15.8-9.1.1.2-4 8.7-3.9 8.9.2.4 1.5-1.4 1.7-1" fill="none" stroke="#5ba525" stroke-linecap="round" stroke-linejoin="round"/></svg>

<svg version="1.1" id="Layer_1" xmlns="http://www.w3.org/2000/svg" xmlns:xlink="http://www.w3.org/1999/xlink" x="0px" y="0px" viewBox="0 0 175.5 70.8" preserveAspectRatio="none" style="enable-background:new 0 0 175.5 70.8;" xml:space="preserve">
<style type="text/css">
	.st0{fill:none;stroke:#5BA525;stroke-linecap:round;stroke-linejoin:round;}
</style>
<g>
	<path class="st0" d="M1.7,3.1C1.9,3.4,5.9,0.3,6,0.6c0.1,0.2-4.5,9.1-4.4,9.3c0.4,0.6,14.2-9,14.5-8.4C16.3,1.8,5.8,13.6,6,14
		C6.5,14.7,25.2,1.5,25.8,2.6C26.1,3.2,4.9,21,5.3,21.7C6.1,23.1,36,2.4,36.7,3.6C37.4,4.7-0.1,30.9,0.5,32C1.3,33.4,52-0.2,53,1.7
		c0.6,1.1-48.1,33-47.4,34.2c0.9,1.5,59-36.3,60-34.6c1,1.8-63.7,42.1-62.8,43.6C4.1,47.2,75.6-0.2,76.9,2.1
		c1.3,2.3-77.5,48-76.1,50.4c1.6,2.8,81.5-50.7,83.1-48c1.3,2.3-79.4,50-78.1,52.2C7.6,60,101-1.7,102.5,0.8
		C104,3.6,0.9,63.7,2.3,66c2,3.5,111.3-68.8,113.3-65.4c1.7,3-104.5,64.1-102.9,66.9c1.6,2.9,107.5-65.6,109.1-63
		c1.5,2.6-98,59.3-96.3,62.3C27.7,70.6,132.8,0,134.9,3.6C136.3,6.1,34.6,65.5,36.1,68c2.1,3.6,109-67.7,111.1-64.1
		c1.7,2.9-101.6,62.6-100,65.2c1.8,3.1,115.1-70.8,117-67.5c1.6,2.7-104.1,63.6-102.6,66.4c2,3.4,107.9-66.2,109.6-63.3
		c1.6,2.9-96.1,59.3-94.6,61.9c1.5,2.7,94.3-58,95.8-55.3c1.4,2.4-85.7,54.1-84.5,56.3c1.4,2.3,84.2-52.1,85.7-49.5
		c1,1.7-79.7,50-78.4,52.3c1.4,2.4,77.5-47,78.5-45.3c1.1,1.9-62.6,40.6-61.6,42.3c0.9,1.5,62.1-37.9,63-36.3
		c0.9,1.6-56.3,37.4-55.4,38.9c1,1.7,46.6-28.8,47.4-27.4c0.4,0.7-31.4,23.4-30.8,24.4c0.8,1.3,36.5-22.8,37.3-21.5
		c0.4,0.6-29.4,22.5-28.8,23.4c0.5,0.8,26-16.2,26.5-15.3c0.3,0.5-15.3,15-15,15.6c0.3,0.6,15.4-9.9,15.8-9.1c0.1,0.2-4,8.7-3.9,8.9
		c0.2,0.4,1.5-1.4,1.7-1"/>
</g>
</svg>
